src/standard/erlenmeyer-flask.svg

<svg xmlns="http://www.w3.org/2000/svg" viewBox="0 0 36 36">
  <path d="M27.39 27.3 21.62 13V7.62c.72-.07 2 .3 2-.62a.62.62 0 0 0-.62-.62h-2a.62.62 0 0 0-.62.7v6a.5.5 0 0 0 0 .12v.12l2.83 7H12.75l2.83-7v-.12a.5.5 0 0 0 0-.12v-6a.62.62 0 0 0-.62-.7H13a.62.62 0 0 0 0 1.24h1.38V13L8.61 27.3a3.14 3.14 0 0 0 2.89 4.32h13a3.14 3.14 0 0 0 2.89-4.32Zm-2.89 3.08h-13a1.89 1.89 0 0 1-1.88-1.88c-.23-.16 2.54-6.53 2.62-6.88h11.52l2.47 6.15a1.89 1.89 0 0 1-1.73 2.61Z"/>
  <path d="M16.56 18.44a.62.62 0 0 0 .88-.88c-.58-.56-1.44.31-.88.88Zm2-6c.57.58 1.47-.31.88-.88s-1.44.31-.88.88Zm-2-7c.55.59 1.48-.32.88-.88a.62.62 0 0 0-.88.88Z"/>
</svg>

<svg id="e5e3a6c9-498f-4044-9aeb-0544f9c59e1a" data-name="Icon" xmlns="http://www.w3.org/2000/svg" viewBox="0 0 36 36">
  <title>Erlenmeyer flask icon - Black</title>
<desc>glass, flask, equipment, experiment, scientific, scientist, science and nature</desc>
<metadata><?xpacket begin="﻿" id="W5M0MpCehiHzreSzNTczkc9d"?>
<x:xmpmeta xmlns:x="adobe:ns:meta/" x:xmptk="Adobe XMP Core 8.0-c001 1.000000, 0000/00/00-00:00:00        ">
   <rdf:RDF xmlns:rdf="http://www.w3.org/1999/02/22-rdf-syntax-ns#">
      <rdf:Description rdf:about=""
            xmlns:xmp="http://ns.adobe.com/xap/1.0/"
            xmlns:dc="http://purl.org/dc/elements/1.1/"
            xmlns:cq="http://www.day.com/jcr/cq/1.0"
            xmlns:tiff="http://ns.adobe.com/tiff/1.0/">
         <xmp:rhcc-effective-on>2023-12-08T17:41:03.916Z</xmp:rhcc-effective-on>
         <xmp:rhcc-metadata-complete-moderator>pending</xmp:rhcc-metadata-complete-moderator>
         <xmp:rhcc-translation-id>TRA83bd028b-0f5c-4326-aa5f-8bf9bb00e846</xmp:rhcc-translation-id>
         <xmp:brand-content-type>Icon</xmp:brand-content-type>
         <xmp:CreateDate>2023-12-08T17:41:03.916Z</xmp:CreateDate>
         <xmp:rhcc-effective-on-set-on-upload>true</xmp:rhcc-effective-on-set-on-upload>
         <xmp:rhcc-metadata-complete-uploader>pending</xmp:rhcc-metadata-complete-uploader>
         <xmp:rhcc-file-last-modified>2023-12-08T17:42:25.312Z</xmp:rhcc-file-last-modified>
         <xmp:rhcc-audience>rhcc-audience:internal</xmp:rhcc-audience>
         <xmp:rhcc-rights-restricted>no</xmp:rhcc-rights-restricted>
         <xmp:brand-content-subtype>Icon</xmp:brand-content-subtype>
         <xmp:rhcc-derivative-id>DER83bd028b-0f5c-4326-aa5f-8bf9bb00e846</xmp:rhcc-derivative-id>
         <xmp:brand-logo-color>Black</xmp:brand-logo-color>
         <xmp:rhcc-notify-portal-subscribers-on-change>yes</xmp:rhcc-notify-portal-subscribers-on-change>
         <dc:format>image/svg+xml</dc:format>
         <dc:modified>2024-02-09T20:26:11.182Z</dc:modified>
         <dc:title>
            <rdf:Alt>
               <rdf:li xml:lang="x-default">Erlenmeyer flask icon - Black</rdf:li>
            </rdf:Alt>
         </dc:title>
         <dc:description>
            <rdf:Alt>
               <rdf:li xml:lang="x-default">glass, flask, equipment, experiment, scientific, scientist, science and nature</rdf:li>
            </rdf:Alt>
         </dc:description>
         <cq:lastReplicationAction_scene7>Activate</cq:lastReplicationAction_scene7>
         <cq:lastReplicationAction_publish>Activate</cq:lastReplicationAction_publish>
         <cq:lastReplicated_publish>2024-02-09T22:10:51.142Z</cq:lastReplicated_publish>
         <cq:lastReplicatedBy>workflow-process-service</cq:lastReplicatedBy>
         <cq:lastReplicationAction>Activate</cq:lastReplicationAction>
         <cq:lastReplicatedBy_publish>workflow-process-service</cq:lastReplicatedBy_publish>
         <cq:isDelivered>true</cq:isDelivered>
         <cq:lastReplicated>2024-02-09T22:10:51.142Z</cq:lastReplicated>
         <cq:lastReplicatedBy_scene7>workflow-process-service</cq:lastReplicatedBy_scene7>
         <cq:lastReplicated_scene7>2024-02-09T22:10:51.142Z</cq:lastReplicated_scene7>
         <tiff:ImageLength>36</tiff:ImageLength>
         <tiff:ImageWidth>36</tiff:ImageWidth>
      </rdf:Description>
   </rdf:RDF>
</x:xmpmeta>
                                                                                                    
                                                                                                    
                                                                                                    
                                                                                                    
                                                                                                    
                                                                                                    
                                                                                                    
                                                                                                    
                                                                                                    
                                                                                                    
                                 
<?xpacket end="w"?></metadata>
<g>
    <path d="M27.39,27.3,21.62,13V7.62c.72-.07,2,.3,2-.62A.62.62,0,0,0,23,6.38H21a.62.62,0,0,0-.62.7v6a.5.5,0,0,0,0,.12s0,.08,0,.12l2.83,7H12.75l2.83-7s0-.08,0-.12a.5.5,0,0,0,0-.12v-6a.62.62,0,0,0-.62-.7H13a.62.62,0,0,0,0,1.24h1.38V13L8.61,27.3a3.14,3.14,0,0,0,2.89,4.32h13A3.14,3.14,0,0,0,27.39,27.3ZM24.5,30.38h-13A1.89,1.89,0,0,1,9.62,28.5c-.23-.16,2.54-6.53,2.62-6.88H23.76l2.47,6.15A1.89,1.89,0,0,1,24.5,30.38Z"/>
    <path d="M16.56,18.44a.62.62,0,0,0,.88-.88C16.86,17,16,17.87,16.56,18.44Z"/>
    <path d="M18.56,12.44c.57.58,1.47-.31.88-.88S18,11.87,18.56,12.44Z"/>
    <path d="M16.56,5.44c.55.59,1.48-.32.88-.88A.62.62,0,0,0,16.56,5.44Z"/>
  </g>
</svg>
